svg/recycle_variant.svg

<svg xmlns="http://www.w3.org/2000/svg" viewBox="0 0 24 24"><path d="m7.17 7.91 1.73 1 3.18-5.49 2.25 3.89-2.6 1.5 5.46 1.46 1.47-5.46-2.6 1.5-2.25-3.9a1.99 1.99 0 0 0-2.73-.73c-.27.15-.5.37-.67.63M10 20v-2H3.66l2.24-3.9 2.6 1.5-1.46-5.46-5.47 1.46 2.6 1.5L1.92 17a2.003 2.003 0 0 0 1.62 3m15.52-8.5-1.74 1L20.5 18H16v-3l-4 4 4 4v-3h4.5c1.11 0 2-.89 2-2 0-.31-.08-.62-.22-.89Z"/></svg>

<?xml version="1.0" encoding="UTF-8"?><!DOCTYPE svg PUBLIC "-//W3C//DTD SVG 1.1//EN" "http://www.w3.org/Graphics/SVG/1.1/DTD/svg11.dtd"><svg xmlns="http://www.w3.org/2000/svg" xmlns:xlink="http://www.w3.org/1999/xlink" version="1.1" id="mdi-recycle-variant" width="24" height="24" viewBox="0 0 24 24"><path d="M7.17 7.91L8.9 8.91L12.08 3.42L14.33 7.31L11.73 8.81L17.19 10.27L18.66 4.81L16.06 6.31L13.81 2.41C13.26 1.45 12.03 1.12 11.08 1.68C10.81 1.83 10.58 2.05 10.41 2.31M10 20V18L3.66 18L5.9 14.1L8.5 15.6L7.04 10.14L1.57 11.6L4.17 13.1L1.92 17C1.37 17.96 1.7 19.18 2.65 19.73C2.92 19.89 3.22 19.97 3.54 20M19.06 11.5L17.32 12.5L20.5 18H16V15L12 19L16 23V20H20.5C21.61 20 22.5 19.11 22.5 18C22.5 17.69 22.42 17.38 22.28 17.11Z" /></svg>
